assets/features/channel/east-asia/WeChat.svg

<svg width="80" height="80" viewBox="0 0 80 80" fill="none" xmlns="http://www.w3.org/2000/svg">
<g clip-path="url(#clip0_2497_22811)">
<rect width="80" height="80" rx="8" fill="#28C445"/>
<path d="M36.8921 46.2243C36.8921 52.397 42.9784 57.4042 50.446 57.4042C52.259 57.4042 54.0288 57.102 55.5827 56.584C56.0144 56.7999 59.1223 59.4761 59.8129 59.0013C60.2878 58.6128 58.6906 55.7207 58.5611 55.2027C61.8417 53.174 64 49.8934 64 46.2243C64 40.0516 57.9137 35.0444 50.446 35.0444C42.9784 35.0444 36.8921 40.0516 36.8921 46.2243ZM53.295 42.2962C53.295 41.2171 54.1583 40.3538 55.2374 40.3538C56.3165 40.3538 57.1799 41.2171 57.1799 42.2962C57.1799 43.3754 56.3165 44.2387 55.2374 44.2387C54.1583 44.2387 53.295 43.3754 53.295 42.2962ZM43.7554 42.2962C43.7554 41.2171 44.6187 40.3538 45.6978 40.3538C46.777 40.3538 47.6403 41.2171 47.6403 42.2962C47.6403 43.3754 46.777 44.2387 45.6978 44.2387C44.6187 44.2387 43.7554 43.3754 43.7554 42.2962Z" fill="white"/>
<path d="M35.6834 46.138C35.6834 39.4041 42.3309 33.9653 50.4892 33.9653C50.9209 33.9653 51.3525 33.9653 51.741 34.0085C50.8345 26.584 43.1942 20.7998 33.9137 20.7998C24.0288 20.7998 16 27.4041 16 35.5624C16 40.3969 18.8489 44.7135 23.2086 47.3898C23.036 48.0372 20.964 51.879 21.5683 52.397C22.4748 53.0013 26.5755 49.4617 27.1367 49.2027C29.2086 49.8934 31.4964 50.2819 33.9137 50.2819C34.777 50.2819 35.6403 50.2387 36.5036 50.1092C35.9856 48.9006 35.6834 47.5624 35.6834 46.138ZM40.1727 27.7063C41.5971 27.7063 42.7626 28.8718 42.7626 30.2962C42.8057 31.7207 41.6403 32.8861 40.1727 32.8861C38.7482 32.8861 37.5827 31.7207 37.5827 30.2962C37.5827 28.8718 38.7482 27.7063 40.1727 27.7063ZM27.6115 32.8861C26.187 32.8861 25.0216 31.7207 25.0216 30.2962C25.0216 28.8718 26.187 27.7063 27.6115 27.7063C29.036 27.7063 30.2014 28.8718 30.2014 30.2962C30.2014 31.7207 29.036 32.8861 27.6115 32.8861Z" fill="white"/>
</g>
<defs>
<clipPath id="clip0_2497_22811">
<rect width="80" height="80" rx="8" fill="white"/>
</clipPath>
</defs>
</svg>

<svg xmlns="http://www.w3.org/2000/svg" width="80" height="80" fill="none" viewBox="0 0 80 80"><g clip-path="url(#a)"><rect width="80" height="80" fill="#28c445" rx="8"/><path fill="#fff" d="M36.892 46.224c0 6.173 6.086 11.18 13.554 11.18 1.813 0 3.583-.302 5.137-.82.431.216 3.54 2.892 4.23 2.417.475-.388-1.122-3.28-1.252-3.798 3.28-2.029 5.439-5.31 5.439-8.979 0-6.172-6.086-11.18-13.554-11.18s-13.554 5.008-13.554 11.18m16.403-3.928c0-1.079.863-1.942 1.942-1.942 1.08 0 1.943.863 1.943 1.942 0 1.08-.864 1.943-1.943 1.943a1.934 1.934 0 0 1-1.942-1.943m-9.54 0c0-1.079.864-1.942 1.943-1.942s1.942.863 1.942 1.942c0 1.08-.863 1.943-1.942 1.943a1.934 1.934 0 0 1-1.943-1.943"/><path fill="#fff" d="M35.683 46.138c0-6.734 6.648-12.173 14.806-12.173.432 0 .864 0 1.252.043-.907-7.424-8.547-13.208-17.827-13.208C24.029 20.8 16 27.404 16 35.562c0 4.835 2.849 9.152 7.209 11.828-.173.647-2.245 4.489-1.64 5.007.906.604 5.007-2.935 5.568-3.194a21.4 21.4 0 0 0 6.777 1.079c.863 0 1.726-.043 2.59-.173a10.05 10.05 0 0 1-.82-3.971m4.49-18.432a2.6 2.6 0 0 1 2.59 2.59c.043 1.425-1.123 2.59-2.59 2.59a2.6 2.6 0 0 1-2.59-2.59 2.6 2.6 0 0 1 2.59-2.59m-12.562 5.18a2.597 2.597 0 0 1-2.59-2.59 2.6 2.6 0 0 1 2.59-2.59 2.6 2.6 0 0 1 2.59 2.59 2.597 2.597 0 0 1-2.59 2.59"/></g><defs><clipPath id="a"><rect width="80" height="80" fill="#fff" rx="8"/></clipPath></defs></svg>
